X: 10001
T: ALLISON'S JIG
C: Bob McQuillen 11 Nov 93
B: Bob's Note Book 10 #1
%R: jig
Z: 2018 John Chambers <jc:trillian.mit.edu>
M: 6/8
L: 1/8
K: G
Bc \
| ded cde | dBG AGE | DGB dcB | cBc ABc \
| ded cde | dBG AGE | DGB dcB | AGF G  :|
|: Bc \
| dge dBc | ded BGB | dge dBd | gdB A2c \
| BGB cAc | Bcd efg | dBG Adc | BGG G  :|
%%begintext align
%% This little tune is for my
%% youngest grandchild, Allison Parsons. Her folks are Becky (my
%% daughter) and Daniel, and she lives in Kissimmee, FL, so
%% I don't get to see her too often. But she's a sweetheart just
%% the same, and this tune comes to you with much love
%%               always, Allison, from Grampy
%%endtext

%%sep 1 1 500

%%sep 1 1 500

